incomeartour/img/icons/calendar-dec.svg

<svg width="26" height="26" viewBox="0 0 26 26" fill="none" xmlns="http://www.w3.org/2000/svg">
<g opacity="0.9">
<path d="M22.9552 2.20724H21.2725V1.24571C21.2725 0.714945 20.8418 0.28418 20.311 0.28418C19.7802 0.28418 19.3495 0.714945 19.3495 1.24571V2.20724H5.88807V1.24571C5.88807 0.714945 5.4573 0.28418 4.92654 0.28418C4.39578 0.28418 3.96501 0.714945 3.96501 1.24571V2.20724H2.28234C1.08956 2.20724 0.118896 3.1779 0.118896 4.37068V7.01488H25.1186V4.37068C25.1186 3.1779 24.148 2.20724 22.9552 2.20724Z" fill="black"/>
<path d="M0.118652 23.1205C0.118652 24.3133 1.08932 25.284 2.28209 25.284H22.955C24.1477 25.284 25.1184 24.3133 25.1184 23.1205V8.93799H0.118652V23.1205Z" fill="black"/>
<path d="M3.53162 19.912V12.7809H6.12291C6.89963 12.7809 7.54912 12.9416 8.0714 13.263C8.59367 13.5777 8.98538 14.0062 9.24652 14.5486C9.50766 15.0843 9.63823 15.6802 9.63823 16.3364C9.63823 17.0595 9.49427 17.689 9.20635 18.2246C8.91842 18.7603 8.50998 19.1754 7.981 19.47C7.45873 19.7647 6.83936 19.912 6.12291 19.912H3.53162ZM8.24214 16.3364C8.24214 15.8744 8.15844 15.4693 7.99105 15.1211C7.82365 14.7662 7.5826 14.4917 7.2679 14.2975C6.95319 14.0966 6.57153 13.9962 6.12291 13.9962H4.91766V18.6967H6.12291C6.57823 18.6967 6.96324 18.5962 7.27794 18.3954C7.59265 18.1878 7.83035 17.9066 7.99105 17.5517C8.15844 17.1901 8.24214 16.785 8.24214 16.3364Z" fill="white"/>
<path d="M15.6727 18.6967V19.912H10.7211V12.7809H15.5823V13.9962H12.1072V15.7137H15.1103V16.8386H12.1072V18.6967H15.6727Z" fill="white"/>
<path d="M16.1743 16.2962C16.1743 15.861 16.2513 15.4358 16.4053 15.0207C16.566 14.5988 16.797 14.2172 17.0983 13.8757C17.3996 13.5275 17.7679 13.253 18.2031 13.0521C18.6384 12.8445 19.1338 12.7407 19.6896 12.7407C20.3458 12.7407 20.9116 12.8847 21.387 13.1726C21.8691 13.4605 22.2273 13.8355 22.4617 14.2975L21.397 15.0307C21.2765 14.7629 21.1192 14.5519 20.925 14.3979C20.7308 14.2372 20.5232 14.1268 20.3023 14.0665C20.0813 13.9995 19.8637 13.9661 19.6494 13.9661C19.3012 13.9661 18.9966 14.0364 18.7354 14.177C18.481 14.3176 18.2667 14.5017 18.0926 14.7294C17.9186 14.957 17.788 15.2115 17.7009 15.4927C17.6206 15.7739 17.5804 16.0552 17.5804 16.3364C17.5804 16.6511 17.6306 16.9558 17.7311 17.2504C17.8315 17.5383 17.9721 17.7961 18.1529 18.0237C18.3404 18.2447 18.5614 18.4221 18.8158 18.5561C19.0769 18.6833 19.3615 18.7469 19.6695 18.7469C19.8905 18.7469 20.1148 18.7101 20.3424 18.6364C20.5701 18.5628 20.781 18.4456 20.9752 18.2849C21.1694 18.1242 21.32 17.9166 21.4272 17.6622L22.5621 18.315C22.4215 18.6699 22.1905 18.9712 21.8691 19.219C21.5544 19.4667 21.1995 19.6542 20.8045 19.7814C20.4094 19.9086 20.0177 19.9722 19.6293 19.9722C19.1205 19.9722 18.6551 19.8684 18.2333 19.6609C17.8114 19.4466 17.4465 19.1654 17.1385 18.8172C16.8372 18.4623 16.5995 18.0673 16.4254 17.632C16.258 17.1901 16.1743 16.7448 16.1743 16.2962Z" fill="white"/>
</g>
</svg>

<svg width="26" height="26" fill="none" xmlns="http://www.w3.org/2000/svg"><g opacity=".9"><path d="M22.955 2.207h-1.682v-.961a.962.962 0 00-1.924 0v.961H5.89v-.961a.962.962 0 00-1.924 0v.961H2.282C1.09 2.207.12 3.177.12 4.371v2.644h25V4.37a2.167 2.167 0 00-2.164-2.164zM.119 23.12c0 1.193.97 2.164 2.163 2.164h20.673c1.193 0 2.163-.97 2.163-2.163V8.938h-25V23.12z" fill="#000"/><path d="M3.532 19.912v-7.131h2.59c.778 0 1.427.16 1.95.482a2.99 2.99 0 011.175 1.286c.26.535.391 1.131.391 1.787 0 .724-.144 1.353-.432 1.889-.288.535-.696.95-1.225 1.245-.522.295-1.142.442-1.858.442H3.532zm4.71-3.576c0-.462-.084-.867-.251-1.215a1.888 1.888 0 00-.723-.824c-.315-.2-.696-.3-1.145-.3H4.918v4.7h1.205c.455 0 .84-.1 1.155-.302.315-.207.552-.488.713-.843a2.86 2.86 0 00.251-1.216zm7.431 2.361v1.215H10.72v-7.131h4.861v1.215h-3.475v1.718h3.003v1.125h-3.003v1.858h3.566zm.501-2.401a3.64 3.64 0 01.924-2.42c.302-.348.67-.623 1.105-.824.435-.207.93-.311 1.487-.311.656 0 1.222.144 1.697.432.482.287.84.662 1.075 1.124l-1.065.734a1.655 1.655 0 00-.472-.633 1.657 1.657 0 00-.623-.332 2.242 2.242 0 00-.653-.1 1.9 1.9 0 00-.914.211c-.254.14-.468.325-.642.552a2.43 2.43 0 00-.392.764 3.06 3.06 0 00-.12.843c0 .315.05.62.15.914.1.288.241.546.422.774.187.22.408.398.663.532.26.127.546.19.854.19.22 0 .445-.036.672-.11.228-.073.439-.19.633-.351.194-.16.345-.368.452-.623l1.135.653a2.11 2.11 0 01-.693.904c-.315.248-.67.435-1.064.562a3.8 3.8 0 01-1.176.191 3.12 3.12 0 01-1.396-.311 3.66 3.66 0 01-1.095-.844 4.267 4.267 0 01-.713-1.185 3.746 3.746 0 01-.25-1.336z" fill="#fff"/></g></svg>
